X:1
T:6 Lieder, Op.15
T:Lust und Qual
T:4.Lust und Qual
T:Johanna Kinkel
T:Johann Wolfgang von Goethe
T:6 Lieder, Op.15 (für Alt oder Bariton) 
T:Creative Commons copyright waiver (CC0 1.0 Universal)
T:Creative Commons copyright waiver (CC0 1.0 Universal)
C:Johanna Kinkel  (1846 edition originally published under the name J. Mathieux)
Z:Johann Wolfgang von Goethe
Z:Creative Commons copyright waiver (CC0 1.0 Universal)
%%score 1 2 3 { 4 | 5 }
L:1/8
Q:1/4=94
M:4/4
K:Eb
V:1 treble nm="Gesang\nVoice"
V:2 treble nm="Voice\n(v.2)" snm="v.2"
V:3 treble nm="Voice\n(v.3)" snm="v.3"
V:4 treble nm="Pianoforte"
V:5 bass 
V:1
"^Andante con moto" z4 | %1
w: |
w: |
w: |
"^TRANSCRIBER: some system breaks have been changed to avoid splitting measures,\nand voice staves 2 and 3 are made mostly invisible with the setting \"Hide always\"\n" z8 | %2
w: |
w: |
w: |
 z8 | z8 | z4 |: GF _ED | C3 C{/D} C=B, CE | D2 G z CD EF | G2 B2 =AB/c/B A | G4 GF ED | %10
w: |||Kna- * be *|sass ich, Fisch- * er- *|kna- be, auf * dem *|schwar- zen Fels * * * am|Meer, und * be- *|
w: |||Ach! * * *|||* * * * * * zum|Hain, * * * *|
w: |||Weiss * * *|||* * * * * * er-|geht! * * * *|
 C3 D{/F} ED EF | G2 B z (3(FBc (3BF) A | G2 e z (3(FBc (3BF) A |!<(! G8!<)! | G4 =B4 | %15
w: reit- end fal- * sche *|Ga- be, sang * * * * ich|lau- schend rings * * * * um-|her.|An- gel|
w: ||* * * * * * * al-|lein.||
w: ||* * * * * * * es|weht.||
 (D3 =E) D4 |"^MODERN HYPHENATION:\nv.1  \"lo - ckend\"\n" D4 =A4 | (D3 =E) D2 z2 | %18
w: schweb- * te|lo- ckend|nie- * der|
w: |||
w: |||
 z2 G G ^F G =A F | d2 z2 z4 | z2 z2 G=F =ED | C3 D{/F} =ED EF | G2 =e z =E2 c2 | %23
w: Gleich ein Fisch- lein streift und|schnappt!|Scha- * den- *|fro- he Schel- * men- *|lie- der, und das|
w: |||sie * * * * *||
w: |||möcht' ich * * * *||
 =B3 =A (3AGF (3=EFD | (=A2 G) z GF =ED | ^C3 =E =AB EA | G2 F z =A2 d2 | cG =EF (!turn!G2 =A) =B | %28
w: Fisch- lein war * * er- * *|tappt; * Scha- * den- *|fro- he. Schel- * men- *|lie- der, und das|Fisch- * lein * war * er-|
w: |||Lo- cken, * *||
w: |||klam- mert, * *||
 c2 z2 z4 | z8 | z8 | z8 | z4 :| %33
w: tappt.|||||
w: |||||
w: |||||
V:2
 z4 | z8 | z8 | z8 | z4 |: z4 | z8 | z8 | z8 | z8 | z8 | z8 | z8 | z8 | z8 | z8 | z8 | z8 | z8 | %19
w: |||||||||||||||||||
 z2 G G ^F G =A F | G2 z2 G=F =ED | z8 | z8 | z8 | z8 | z8 | z8 | z8 | z8 | z8 | z8 | z8 | z4 :| %33
w: Wie ein Ta- schen- mes- ser|schnappt fass- * te *|||||||||||||
V:3
 z4 | z8 | z8 | z8 | z4 |: z4 | z8 | z8 | z8 | z8 | z8 | z8 | z8 | z8 | z8 | z8 | z8 | z8 | %18
w: ||||||||||||||||||
 z2 G G ^F G =A F | d2 G G ^F G =A F | G2 z2 G=F =ED | z8 | z8 | z8 | z8 | z8 | z8 | z8 | z8 | z8 | %30
w: das Ge- wim- mel gross und|klein, das Ge- wim- mel gross und|klein; Im- * mer *||||||||||
 z8 | z8 | z4 :| %33
w: |||
V:4
 z4 | z8 | z8 | z8 | [=EGc]4 |: z4 | z8 | z8 | z8 | z8 | z8 | z8 | z8 | z8 | z8 | z8 | z8 | z8 | %18
 z8 | z8 | z8 | z8 | z8 | z8 | z8 | z8 | z8 | z8 | z8 | z8 | z8 | z8 | z4 :| %33
V:5
 z4 | z8 | z8 | z8 | [C,G,]4 |: z4 | z8 | z8 | z8 | z8 | z8 | z8 | z8 | z8 | z8 | z8 | z8 | z8 | %18
 z8 | z8 | z8 | z8 | z8 | z8 | z8 | z8 | z8 | z8 | z8 | z8 | z8 | z8 | z4 :| %33

